public/img/advice-cloud.svg

<svg width="562" height="368" viewBox="0 0 562 368" fill="none" xmlns="http://www.w3.org/2000/svg">
<path d="M474.822 154.947C473.708 70.7044 405.124 0 320.573 0C266.708 0 216.128 29.1011 188.202 71.0434C175.935 62.8796 161.197 58.1053 145.345 58.1053C102.536 58.1053 67.8276 92.7941 67.8276 135.579C67.8276 137.061 67.9632 138.504 68.0504 139.976C67.9536 141.738 67.8276 143.52 67.8276 145.263C29.1852 163.779 0 207.794 0 253.291C0 316.383 51.6459 368 114.774 368H352.238C353.576 368 354.874 367.845 356.192 367.797C357.519 367.845 358.818 368 360.155 368H455.142C513.91 368 562 319.937 562 261.203C562 209.189 524.268 164.254 474.822 154.947Z" fill="#35B0F6"/>
</svg>

<svg width="562" height="368" viewBox="0 0 562 368" fill="none" xmlns="http://www.w3.org/2000/svg"><path d="M474.822 154.947C473.708 70.704 405.124 0 320.573 0c-53.865 0-104.445 29.101-132.371 71.043-12.267-8.163-27.005-12.938-42.857-12.938-42.809 0-77.517 34.69-77.517 77.474 0 1.482.135 2.925.222 4.397-.096 1.762-.222 3.544-.222 5.287C29.185 163.779 0 207.794 0 253.291 0 316.383 51.646 368 114.774 368h237.464c1.338 0 2.636-.155 3.954-.203 1.327.048 2.626.203 3.963.203h94.987C513.91 368 562 319.937 562 261.203c0-52.014-37.732-96.949-87.178-106.256z" fill="#35B0F6"/></svg>
